X: 1565
T: Angus
R: polka
M: 2/4
K: Dmajor
dB|:.A .f .B .g|A f/e/ f e/f/|g/f/e/d/ c/d/e/f/|e/d/c/B/ A/G/F/G/|
.A .f .B .g|A f/e/ f e/f/|g/f/e/d/ c/A/B/c|1 d f d d/B/:|2 d f d A/G/||
|:F A A/B/A/F/|G B B c/B/|A c/B/ A/G/F/E/|D/F/ A/B/ A D/E/|
F A A/B/A/F/|G B B c/B/|A/B/c/B/ A/G/F/E/|1 D F D A/G/:|2 D F D d/B/||

